img/case.svg

<svg width="124" height="123" viewBox="0 0 124 123" fill="none" xmlns="http://www.w3.org/2000/svg">
<path d="M39.0758 25.0447H38.0758V24.0447V10.4319C38.0758 9.09966 38.608 7.85461 39.535 6.97451C40.4194 6.05128 41.668 5.52465 43.0013 5.52465H80.9986C82.3319 5.52465 83.5806 6.0513 84.465 6.97459C85.392 7.85468 85.9242 9.0997 85.9242 10.4319V24.0447V25.0447H84.9242H80.6536H79.6536V24.0447V17.5173C79.6536 15.7419 78.9121 14.1456 77.7489 12.9875C76.5856 11.8293 74.9791 11.0884 73.1919 11.0884H50.808C49.0722 11.0884 47.4611 11.8233 46.2454 12.9931C45.0855 14.1508 44.3464 15.7448 44.3464 17.5173V24.0447V25.0447H43.3464H39.0758ZM87.6252 3.84108L87.6251 3.84113L87.6166 3.83249C85.9485 2.13195 83.5741 1.08337 80.9986 1.08337H43.0013C40.4259 1.08337 38.0514 2.13192 36.382 3.8327L36.3821 3.83275L36.3739 3.84087C34.6541 5.55317 33.606 7.87952 33.606 10.4319V27.2659C33.606 28.5034 34.612 29.486 35.8415 29.486H46.5807C47.8442 29.486 48.815 28.5126 48.815 27.2659V17.5173C48.815 16.9445 49.0889 16.4435 49.4123 16.1215C49.7359 15.7994 50.2373 15.5297 50.808 15.5297H73.1919C73.7627 15.5297 74.2641 15.7994 74.5876 16.1215C74.9131 16.4455 75.1838 16.9469 75.1838 17.5173V27.2659C75.1838 28.5121 76.1553 29.486 77.4193 29.486H88.1585C89.3875 29.486 90.3929 28.5039 90.3929 27.2659V10.4319C90.3929 7.87929 89.3457 5.5531 87.6252 3.84108ZM65.2565 75.8451H64.2565V74.8451V63.509C64.2565 62.3046 63.2416 61.2878 62.0211 61.2878C60.7673 61.2878 59.7868 62.2956 59.7868 63.509V74.8451V75.8451H58.7868H47.4006C46.1714 75.8451 45.1653 76.8275 45.1653 78.0663C45.1653 79.2703 46.1798 80.2864 47.4006 80.2864H58.7868H59.7868V81.2864V92.5805C59.7868 93.8282 60.7586 94.8017 62.0211 94.8017C63.2503 94.8017 64.2565 93.8193 64.2565 92.5805V81.2864V80.2864H65.2565H76.5993C77.8202 80.2864 78.8347 79.2703 78.8347 78.0663C78.8347 76.8275 77.8286 75.8451 76.5993 75.8451H65.2565ZM119.197 37.1645L119.197 37.1642C116.833 34.8101 113.591 33.3761 110.025 33.3761H13.9735C10.408 33.3761 7.16902 34.8109 4.85252 37.1581L4.55885 37.4557H4.51925C2.32397 39.7803 1 42.8881 1 46.2894V108.684C1 112.229 2.43847 115.455 4.80307 117.809C7.16676 120.163 10.4097 121.598 13.9735 121.598H110.025C113.592 121.598 116.831 120.162 119.148 117.816L119.441 117.518H119.481C121.676 115.192 123 112.085 123 108.684V46.2894C123 42.744 121.561 39.5175 119.197 37.1645ZM62.0211 53.1049C68.9373 53.1049 75.1833 55.8783 79.7203 60.3954C84.2589 64.914 87.0448 71.1782 87.0448 78.0663C87.0448 84.9551 84.2575 91.1768 79.7203 95.694C75.1866 100.208 68.9418 103.028 62.0211 103.028C55.0591 103.028 48.814 100.209 44.2797 95.694C39.7425 91.1768 36.9551 84.9551 36.9551 78.0663C36.9551 71.1782 39.7412 64.914 44.2797 60.3954C48.8174 55.8777 55.0636 53.1049 62.0211 53.1049ZM91.5145 78.0663C91.5145 69.9258 88.2204 62.5768 82.8817 57.2605C77.5412 51.9445 70.1575 48.6626 62.0211 48.6626C53.8407 48.6626 46.4584 51.945 41.1184 57.2604C35.7797 62.5767 32.4854 69.9257 32.4854 78.0663C32.4854 86.163 35.7791 93.5122 41.1184 98.8291C46.4609 104.147 53.8442 107.469 62.0211 107.469C70.154 107.469 77.5387 104.147 82.8817 98.829C88.2209 93.5121 91.5145 86.1629 91.5145 78.0663ZM13.9735 37.8174H110.025C112.366 37.8174 114.47 38.7412 116.031 40.2929C117.607 41.8156 118.53 43.9646 118.53 46.2894V108.684C118.53 111.009 117.607 113.157 116.031 114.68C114.47 116.231 112.366 117.156 110.025 117.156H13.9735C11.634 117.156 9.52988 116.231 7.96895 114.68C6.39325 113.157 5.46973 111.009 5.46973 108.684V46.2894C5.46973 43.9646 6.39305 41.8156 7.96875 40.2928C9.52995 38.7412 11.6342 37.8174 13.9735 37.8174Z" fill="#1A1919" stroke="white" stroke-width="2"/>
</svg>

<svg width="124" height="123" fill="none" xmlns="http://www.w3.org/2000/svg"><path d="M39.08 25.04h-1v-14.6c0-1.34.53-2.59 1.45-3.47A4.78 4.78 0 0 1 43 5.52h38c1.33 0 2.58.53 3.47 1.45a4.75 4.75 0 0 1 1.45 3.46v14.61h-6.27v-7.52a6.45 6.45 0 0 0-6.46-6.43H50.81a6.6 6.6 0 0 0-4.56 1.9 6.38 6.38 0 0 0-1.9 4.53v7.52h-5.27Zm48.55-21.2h-.01A9.28 9.28 0 0 0 81 1.07H43a9.28 9.28 0 0 0-6.62 2.75v.01a9.27 9.27 0 0 0-2.77 6.6v16.83c0 1.23 1 2.22 2.23 2.22h10.74a2.2 2.2 0 0 0 2.23-2.22v-9.75c0-.58.28-1.08.6-1.4.33-.32.83-.59 1.4-.59h22.38a2.02 2.02 0 0 1 2 1.99v9.75a2.2 2.2 0 0 0 2.23 2.22h10.74c1.23 0 2.23-.99 2.23-2.22V10.43a9.27 9.27 0 0 0-2.76-6.59Zm-22.37 72h-1V63.52c0-1.2-1.02-2.22-2.24-2.22-1.25 0-2.23 1-2.23 2.22v12.34H47.4c-1.23 0-2.23.98-2.23 2.22 0 1.2 1.01 2.22 2.23 2.22H59.8v12.29a2.2 2.2 0 0 0 2.23 2.22c1.23 0 2.24-.98 2.24-2.22v-12.3H76.6a2.25 2.25 0 0 0 2.23-2.21c0-1.24-1-2.22-2.23-2.22H65.26Zm53.94-38.68a12.95 12.95 0 0 0-9.17-3.78H13.97c-3.56 0-6.8 1.43-9.12 3.78l-.3.3h-.03A12.82 12.82 0 0 0 1 46.29v62.4a12.95 12.95 0 0 0 12.97 12.91h96.06c3.56 0 6.8-1.44 9.12-3.78l.3-.3h.03a12.82 12.82 0 0 0 3.52-8.84v-62.4c0-3.54-1.44-6.76-3.8-9.12ZM62.02 53.1a24.97 24.97 0 0 1 25.02 24.97 25.01 25.01 0 0 1-25.02 24.96 25.04 25.04 0 0 1-25.06-24.96c0-6.9 2.78-13.16 7.32-17.67a25 25 0 0 1 17.74-7.3Zm29.5 24.97c0-8.14-3.3-15.5-8.64-20.8a29.49 29.49 0 0 0-20.86-8.6 29.51 29.51 0 0 0-20.9 8.59 29.24 29.24 0 0 0-8.63 20.8c0 8.1 3.29 15.45 8.63 20.77a29.55 29.55 0 0 0 41.76 0 29.22 29.22 0 0 0 8.63-20.76ZM13.96 37.82h96.06c2.34 0 4.44.92 6 2.47a8.3 8.3 0 0 1 2.5 6v62.4a8.3 8.3 0 0 1-2.5 5.99 8.45 8.45 0 0 1-6 2.48H13.97a8.45 8.45 0 0 1-6-2.48 8.3 8.3 0 0 1-2.5-6v-62.4a8.3 8.3 0 0 1 2.5-5.99 8.45 8.45 0 0 1 6-2.47Z" fill="#1A1919" stroke="#fff" stroke-width="2"/></svg>
